images/viber (1).svg

<svg width="25" height="25" viewBox="0 0 25 25" fill="none" xmlns="http://www.w3.org/2000/svg">
<rect x="-0.35" y="0.35" width="24.3" height="24.3" rx="12.15" transform="matrix(-1 0 0 1 24.3 0)" stroke="white" stroke-width="0.7"/>
<g clip-path="url(#clip0)">
<path fill-rule="evenodd" clip-rule="evenodd" d="M12.6249 8.03569C13.1422 8.09459 13.6454 8.24313 14.1117 8.47464C14.5928 8.70937 14.9012 8.93148 15.3081 9.33516C15.6902 9.71674 15.9017 10.0057 16.1265 10.4541C16.4391 11.0804 16.617 11.8241 16.6475 12.6431C16.6591 12.922 16.6507 12.9846 16.5865 13.0641C16.4649 13.2194 16.197 13.1936 16.1054 13.0199C16.0765 12.962 16.0686 12.9131 16.0591 12.6894C16.0497 12.4109 16.0202 12.1335 15.9707 11.8594C15.7812 10.8199 15.2812 9.9899 14.4823 9.39411C13.8165 8.89621 13.1286 8.65358 12.227 8.60095C11.9217 8.58358 11.8691 8.572 11.8007 8.51937C11.6717 8.41937 11.6654 8.18253 11.7891 8.07253C11.8644 8.00411 11.9175 7.99411 12.1786 8.00253C12.3154 8.00727 12.5154 8.02306 12.6249 8.03569ZM8.95753 8.20832C9.01384 8.22727 9.10016 8.272 9.15016 8.30411C9.4549 8.50516 10.3028 9.58569 10.5807 10.1252C10.7396 10.4336 10.7923 10.662 10.7428 10.831C10.6912 11.0131 10.6059 11.1088 10.2265 11.4136C10.0738 11.5367 9.93121 11.6631 9.90858 11.6962C9.85069 11.7794 9.80437 11.942 9.80437 12.0573C9.80595 12.3236 9.97911 12.8073 10.207 13.1794C10.3833 13.4683 10.6996 13.8388 11.0123 14.1231C11.3796 14.4583 11.7033 14.6862 12.0691 14.8667C12.5391 15.0999 12.8265 15.1588 13.0365 15.0615C13.0891 15.0378 13.1454 15.0057 13.1628 14.9915C13.1791 14.9767 13.3028 14.8267 13.4375 14.661C13.6975 14.3352 13.7565 14.2825 13.9349 14.222C14.1612 14.1452 14.3917 14.1662 14.6244 14.2841C14.9027 14.4376 15.1732 14.6049 15.4349 14.7852C15.7612 15.0136 16.4612 15.582 16.5559 15.6957C16.7223 15.8999 16.7512 16.1615 16.6391 16.4504C16.5202 16.7557 16.0586 17.3267 15.7359 17.5715C15.4438 17.7915 15.237 17.8762 14.9644 17.8888C14.7402 17.8999 14.647 17.881 14.3596 17.7625C12.1075 16.8383 10.3096 15.4588 8.88226 13.5641C8.13647 12.5746 7.56911 11.5483 7.18069 10.4831C6.95437 9.862 6.94384 9.59253 7.12963 9.27464C7.20963 9.14043 7.55121 8.80832 7.80016 8.62306C8.21384 8.31674 8.4049 8.20358 8.557 8.17148C8.66121 8.14937 8.84226 8.16621 8.95805 8.20832H8.95753ZM12.7349 9.19306C13.7086 9.33516 14.4623 9.78569 14.9565 10.5167C15.2338 10.9283 15.407 11.412 15.467 11.931C15.4875 12.121 15.4875 12.4678 15.4649 12.5246C15.4333 12.5907 15.3825 12.6458 15.3191 12.6825C15.2559 12.7146 15.1233 12.7115 15.0496 12.6731C14.9259 12.611 14.8891 12.512 14.8891 12.2441C14.8891 11.8304 14.7817 11.3946 14.5954 11.0562C14.386 10.6723 14.0769 10.3519 13.7007 10.1288C13.3781 9.93727 12.9017 9.79516 12.467 9.7599C12.3096 9.74727 12.2233 9.71516 12.1638 9.64674C12.1194 9.59826 12.0928 9.53609 12.0884 9.47046C12.084 9.40484 12.102 9.33967 12.1396 9.28569C12.2233 9.15621 12.3517 9.13569 12.7349 9.19306ZM13.077 10.3983C13.3928 10.4657 13.6349 10.5852 13.8417 10.7783C14.1081 11.0288 14.2538 11.3325 14.3181 11.7678C14.3612 12.052 14.3438 12.1641 14.2428 12.2567C14.1481 12.3431 13.9733 12.3462 13.8675 12.2646C13.7902 12.2067 13.7665 12.1467 13.7486 11.982C13.7275 11.7636 13.6891 11.6099 13.6233 11.4678C13.4823 11.1662 13.2338 11.0099 12.8133 10.9588C12.6165 10.9346 12.557 10.9125 12.4923 10.8378C12.465 10.8038 12.4455 10.7643 12.4352 10.722C12.4249 10.6797 12.424 10.6356 12.4326 10.5929C12.4413 10.5502 12.4592 10.5099 12.4852 10.4749C12.5111 10.4399 12.5444 10.4111 12.5828 10.3904C12.6433 10.3599 12.6691 10.3567 12.8038 10.3652C12.8875 10.3699 13.0107 10.3841 13.0765 10.3983H13.077Z" fill="white"/>
</g>
<defs>
<clipPath id="clip0">
<rect width="10" height="10" fill="white" transform="translate(6.99966 8)"/>
</clipPath>
</defs>
</svg>

<svg width="25" height="25" fill="none" xmlns="http://www.w3.org/2000/svg"><rect x="-.35" y=".35" width="24.3" height="24.3" rx="12.15" transform="matrix(-1 0 0 1 24.3 0)" stroke="#fff" stroke-width=".7"/><g clip-path="url(#clip0)"><path fill-rule="evenodd" clip-rule="evenodd" d="M12.625 8.036c.517.059 1.02.207 1.487.439.48.234.79.456 1.196.86.382.382.594.67.819 1.12.312.625.49 1.37.52 2.188.012.279.004.342-.06.421-.122.155-.39.13-.482-.044-.029-.058-.036-.107-.046-.33a5.765 5.765 0 00-.088-.83c-.19-1.04-.69-1.87-1.489-2.466-.665-.498-1.353-.74-2.255-.793-.305-.017-.358-.029-.426-.082-.13-.1-.136-.336-.012-.446.075-.069.129-.079.39-.07.136.004.336.02.446.033zm-3.667.172c.056.02.142.064.192.096.305.201 1.153 1.282 1.43 1.821.16.309.212.537.163.706-.052.182-.137.278-.517.583a3.01 3.01 0 00-.317.282.741.741 0 00-.105.361c.002.267.175.75.403 1.122.176.29.493.66.805.944.368.335.691.563 1.057.744.47.233.757.292.967.194a.769.769 0 00.127-.07c.016-.014.14-.164.274-.33.26-.326.32-.378.498-.439a.862.862 0 01.69.062c.278.154.548.32.81.501.326.229 1.026.797 1.12.91.167.205.196.466.084.755-.119.306-.58.877-.903 1.122-.292.22-.499.304-.772.317-.224.01-.317-.008-.604-.127-2.252-.924-4.05-2.303-5.478-4.198a11.877 11.877 0 01-1.701-3.08c-.227-.622-.237-.891-.051-1.21.08-.134.421-.466.67-.65.414-.307.605-.42.757-.453a.87.87 0 01.401.037zm3.777.985c.974.142 1.727.593 2.222 1.324.277.411.45.895.51 1.414.02.19.02.537-.002.594a.364.364 0 01-.146.157.359.359 0 01-.27-.009c-.123-.062-.16-.161-.16-.429 0-.414-.107-.85-.294-1.188a2.433 2.433 0 00-.894-.927c-.323-.192-.8-.334-1.234-.37-.157-.012-.244-.044-.303-.112a.29.29 0 01-.024-.361c.083-.13.212-.15.595-.093zm.342 1.205c.316.068.558.187.765.38.266.25.412.554.476.99.043.284.026.396-.075.489-.095.086-.27.09-.376.008-.077-.058-.1-.118-.118-.283a1.518 1.518 0 00-.126-.514c-.14-.302-.39-.458-.81-.51-.197-.023-.256-.046-.32-.12a.297.297 0 01.09-.448c.06-.03.086-.033.22-.025.084.005.208.02.273.033h.001z" fill="#fff"/></g><defs><clipPath id="clip0"><path fill="#fff" transform="translate(7 8)" d="M0 0h10v10H0z"/></clipPath></defs></svg>
